src/assets/site/social_icons/mail.svg

<?xml version="1.0" encoding="UTF-8"?>
<svg width="40px" height="40px" viewBox="0 0 44 44" version="1.1" xmlns="http://www.w3.org/2000/svg" xmlns:xlink="http://www.w3.org/1999/xlink">
    <!-- Generator: Sketch 48.2 (47327) - http://www.bohemiancoding.com/sketch -->
    <title>mail</title>
    <desc>Created with Sketch.</desc>
    <defs></defs>
    <g id="social-icons" stroke="none" stroke-width="1" fill="none" fill-rule="evenodd" transform="translate(-160.000000, -160.000000)">
        <g id="mail" transform="translate(160.000000, 160.000000)">
            <rect id="Rectangle" x="0" y="0" width="44" height="44"></rect>
            <circle id="Oval" stroke="#343A40" stroke-width="2" cx="22" cy="22" r="21"></circle>
            <path d="M13.1115479,18.9319176 C12.6041918,18.6137699 12.1253151,18.1762296 11.6752192,17.6194362 C11.2251233,17.0626427 11,16.5454609 11,16.0681695 C11,15.4773437 11.1698219,14.9848493 11.5094658,14.5908259 C11.8491096,14.196942 12.3340137,14 12.9641781,14 L31.0356712,14 C31.5674384,14 32.0279315,14.177973 32.4166986,14.5340586 C32.8054658,14.8901442 33,15.3182 33,15.8182262 C33,16.4167233 32.799589,16.9887198 32.3983151,17.5339366 C31.9971918,18.0794323 31.4981233,18.545426 30.9006575,18.9316387 C27.8233699,20.9090085 25.9080137,22.1400352 25.1551918,22.6248583 C25.0733699,22.6779992 24.8993288,22.7933469 24.6333699,22.9714595 C24.367411,23.149572 24.1465068,23.293652 23.9705068,23.4034207 C23.7945068,23.5131893 23.5817397,23.6362083 23.3322055,23.7726171 C23.0826712,23.908747 22.8471507,24.0112628 22.6262466,24.0791882 C22.4051918,24.1475321 22.2005616,24.1814251 22.0123562,24.1814251 L22,24.1814251 L21.9876438,24.1814251 C21.7994384,24.1814251 21.5948082,24.1475321 21.3737534,24.0791882 C21.1528493,24.0112628 20.9174795,23.9088864 20.6677945,23.7726171 C20.4181096,23.6363478 20.2053425,23.5131893 20.0293425,23.4034207 C19.8534932,23.293652 19.6324384,23.149572 19.3664795,22.9714595 C19.1005205,22.7934864 18.9266301,22.6779992 18.8448082,22.6248583 C18.0999726,22.1401747 17.0278493,21.4489252 15.6282877,20.5512492 C14.228726,19.6535732 13.389863,19.1136566 13.1115479,18.9319176 Z M31.7722192,20.1477413 C32.2388904,19.8523284 32.648,19.522604 33,19.1591262 L33,28.1816343 C33,28.6818 32.8078767,29.1095769 32.4230274,29.4658019 C32.0383288,29.822027 31.5758767,30 31.0358219,30 L12.9643288,30 C12.4241233,30 11.9616712,29.822027 11.5769726,29.4658019 C11.192274,29.1097163 11,28.6818 11,28.1816343 L11,19.1591262 C11.360137,19.5302753 11.7734658,19.8599997 12.2399863,20.1477413 C15.2027534,22.0112977 17.2365479,23.3182 18.3415205,24.0681695 C18.8080411,24.3863173 19.1865616,24.6345869 19.4770822,24.8124205 C19.7676027,24.990533 20.154411,25.1722719 20.6372055,25.3579162 C21.12,25.5435605 21.5702466,25.6363129 21.9876438,25.6363129 L22,25.6363129 L22.0125068,25.6363129 C22.4299041,25.6363129 22.88,25.5435605 23.3627945,25.3579162 C23.8457397,25.1722719 24.2323973,24.990533 24.5229178,24.8124205 C24.813589,24.6345869 25.1921096,24.3863173 25.6586301,24.0681695 C27.0497534,23.1363216 29.0879178,21.8294193 31.7722192,20.1477413 Z" id="Shape" fill="#343A40"></path>
        </g>
    </g>
</svg>

<svg width="44" height="44" xmlns="http://www.w3.org/2000/svg"><g fill="none" fill-rule="evenodd"><path d="M0 0h44v44H0z"/><circle stroke="#343A40" stroke-width="2" cx="22" cy="22" r="21"/><path d="M13.11 18.93a5.9 5.9 0 0 1-1.43-1.31c-.45-.56-.68-1.07-.68-1.55 0-.6.17-1.09.5-1.48.35-.4.83-.59 1.46-.59h18.08c.53 0 .99.18 1.38.53.39.36.58.79.58 1.29 0 .6-.2 1.17-.6 1.71-.4.55-.9 1.02-1.5 1.4a10274.02 10274.02 0 0 0-7.57 4.84c-.25.14-.48.24-.7.3-.22.08-.43.11-.62.11H22c-.2 0-.4-.03-.62-.1a3.85 3.85 0 0 1-.7-.3 12.92 12.92 0 0 1-1.3-.8l-.53-.36a624.1 624.1 0 0 0-5.73-3.69zm18.66 1.22c.47-.3.88-.63 1.23-1v9.03c0 .5-.2.93-.58 1.29-.38.35-.84.53-1.38.53H12.96c-.54 0-1-.18-1.38-.53a1.69 1.69 0 0 1-.58-1.29v-9.02c.36.37.77.7 1.24.99a247.13 247.13 0 0 1 7.24 4.66c.29.18.67.36 1.16.55.48.18.93.28 1.35.28H22c.42 0 .87-.1 1.35-.28.49-.19.87-.37 1.16-.55a256.68 256.68 0 0 1 7.25-4.66z" fill="#343A40"/></g></svg>
